build/system/HomeOutline.svg

<svg xmlns="http://www.w3.org/2000/svg" fill="none" viewBox="0 0 24 24" focusable="false"><path d="M0 0H24V24H0z"/><path fill="#74767B" fill-rule="evenodd" d="M17.9998 8.99996L20.9998 12C21.2713 12.2348 21.3011 12.6452 21.0663 12.9168C20.8316 13.1883 20.4211 13.2181 20.1495 12.9834L18.9998 11.8336L18.9998 19.7C18.9998 20.4179 18.4178 21 17.6998 21L14.4992 21C13.7811 21 13.1991 20.4179 13.1992 19.6998L13.1998 14.3L10.7998 14.3L10.7998 19.7C10.7998 20.4179 10.2178 21 9.49979 21L6.29979 21C5.58182 21 4.99979 20.4179 4.99979 19.7L4.99979 11.8336L3.85004 12.9834C3.57849 13.2181 3.16801 13.1883 2.93322 12.9168C2.69843 12.6452 2.72823 12.2348 2.99978 12L5.99979 8.99996L11.0805 3.91921C11.5882 3.41153 12.4113 3.41153 12.919 3.91921L17.9998 8.99996ZM17.6998 19.7L14.4998 19.7L14.4998 14.3C14.4998 13.582 13.9178 13 13.1998 13L10.7998 13C10.0818 13 9.49979 13.582 9.49979 14.3L9.49979 19.7L6.29979 19.7L6.29979 10.5385L11.9998 4.83845L17.6998 10.5385L17.6998 19.7Z"/></svg>

<svg xmlns="http://www.w3.org/2000/svg" fill="none" viewBox="0 0 24 24" focusable="false"><path fill="#74767B" fill-rule="evenodd" d="M18 8.99 21 12c.27.23.3.64.06.91-.23.27-.64.3-.92.07L19 11.83v7.87c0 .71-.59 1.3-1.31 1.3h-3.2c-.71 0-1.3-.59-1.3-1.31V14.3h-2.4v5.4c0 .71-.58 1.3-1.29 1.3H6.29C5.58 21 5 20.41 5 19.7v-7.87l-1.15 1.15c-.28.23-.69.2-.92-.07A.63.63 0 0 1 3 12l3-3.01 5.08-5.08c.5-.5 1.33-.5 1.83 0zm-.31 10.71H14.5v-5.4c0-.72-.59-1.3-1.31-1.3h-2.4c-.71 0-1.29.58-1.29 1.3v5.4H6.29v-9.17L12 4.83l5.69 5.7z"/></svg>
